src/assets/metronic/worbby/global/img/icon-4.svg

<?xml version="1.0" encoding="UTF-8"?>
<svg width="60px" height="80px" viewBox="0 0 60 80" version="1.1" xmlns="http://www.w3.org/2000/svg" xmlns:xlink="http://www.w3.org/1999/xlink">
    <!-- Generator: Sketch 42 (36781) - http://www.bohemiancoding.com/sketch -->
    <title>icon-4</title>
    <desc>Created with Sketch.</desc>
    <defs></defs>
    <g id="Desktop" stroke="none" stroke-width="1" fill="none" fill-rule="evenodd">
        <g id="Desktop-Home" transform="translate(-1085.000000, -2479.000000)">
            <g id="icon-4" transform="translate(1085.000000, 2479.000000)">
                <circle id="Oval-Copy" fill="#FFCB33" cx="33.5" cy="53.5" r="26.5"></circle>
                <path d="M20.4983902,80 C21.6985301,80 22.6586421,79.0241464 22.6586421,77.840324 L22.6586421,71.0893366 C22.8666664,71.0893366 23.0746906,71.1053342 23.2827149,71.1053342 C36.628271,71.1053342 40.6607412,59.9070139 40.9167711,53.9719042 L40.9967804,52.1961706 C41.0287841,51.620257 40.8207599,51.0603409 40.4367151,50.6444033 C40.0526703,50.2284657 39.5086069,49.9725041 38.9325397,49.9405089 L37.1723345,49.8605209 C30.1155116,49.5245713 25.538978,52.2281658 22.6586421,55.7796331 L22.6586421,31.9272109 C31.3476553,31.0313453 36.1002094,24.5683148 36.1002094,13.4979753 C36.1002094,7.30690396 34.5160247,1.80372944 34.4520173,1.57976304 C34.243993,0.843873419 33.651924,0.283957406 32.9158381,0.0919862021 C32.1797523,-0.0999850022 31.3956609,0.123981403 30.8515974,0.651902215 L28.4193138,3.08353747 L25.9870302,0.635904614 C25.1389313,-0.211968205 23.7787727,-0.211968205 22.9306738,0.635904614 L20.4983902,3.06753987 L18.0661066,0.651902215 C17.2180077,-0.195970604 15.8578491,-0.195970604 15.0097502,0.651902215 L12.5774666,3.08353747 L10.145183,0.651902215 C9.60111953,0.107983802 8.8170281,-0.0999850022 8.08094227,0.0919862021 C7.34485644,0.283957406 6.7527874,0.843873419 6.54476315,1.57976304 C6.48075568,1.80372944 4.89657096,7.24291356 4.89657096,13.4659801 C4.89657096,24.5683148 9.64912513,31.0473429 18.3381383,31.9432085 L18.3381383,41.2378143 C14.3856774,36.166575 7.98493108,34.5508174 3.93645901,34.5508174 L2.16025189,34.5508174 C0.960111953,34.5508174 0,35.526671 0,36.7104934 L0,38.4702295 C0,52.6441034 11.7293677,56.3875419 17.9220898,56.3875419 L18.3381383,56.3875419 L18.3381383,77.8563216 C18.3381383,79.0241464 19.2982503,80 20.4983902,80 L20.4983902,80 Z M36.5802654,54.179873 C36.2282244,58.7551867 33.0758568,66.7859821 23.2827149,66.7859821 L23.2827149,66.7859821 L22.8026589,66.7859821 C23.026685,64.5143229 24.6108697,53.9559066 36.5802654,54.179873 L36.5802654,54.179873 Z M4.32050379,38.8541719 C6.57676688,38.9661551 17.2820152,40.1019847 17.5220431,52.0361946 C15.2817819,51.9242114 4.56053178,50.7723841 4.32050379,38.8541719 L4.32050379,38.8541719 Z M9.21707475,13.4339849 C9.21707475,10.8583712 9.53711207,8.37874319 9.87315125,6.47502875 L11.0572893,7.65885117 C11.9053882,8.50672399 13.2655468,8.50672399 14.1136457,7.65885117 L16.5459293,5.22721592 L18.9782129,7.65885117 C19.8263118,8.50672399 21.1864704,8.50672399 22.0345693,7.65885117 L24.4668529,5.22721592 L26.8991366,7.65885117 C27.7472354,8.50672399 29.107394,8.50672399 29.9554929,7.65885117 L31.139631,6.49102635 C31.4756702,8.41073839 31.7957075,10.906364 31.7957075,13.4979753 C31.7957075,27.7358396 23.2987167,27.7358396 20.5143921,27.7358396 C17.7300674,27.7358396 9.21707475,27.719842 9.21707475,13.4339849 L9.21707475,13.4339849 Z" id="icon-flower-black" fill="#1E2225"></path>
            </g>
        </g>
    </g>
</svg>

<svg xmlns="http://www.w3.org/2000/svg" width="60" height="80"><g fill="none" fill-rule="evenodd"><circle cx="33.5" cy="53.5" r="26.5" fill="#FFCB33"/><path fill="#1E2225" d="M20.4984 80c1.2 0 2.1602-.976 2.1602-2.1597v-6.751c.208 0 .416.016.624.016 13.3457 0 17.378-11.1983 17.6342-17.1334l.08-1.7758c.032-.576-.176-1.136-.56-1.5518-.384-.416-.9282-.672-1.5043-.704l-1.7602-.08c-7.0568-.3358-11.6333 2.3678-14.5137 5.9192V31.9272c8.689-.896 13.4416-7.359 13.4416-18.4292 0-6.191-1.5842-11.6943-1.6482-11.9182-.208-.736-.8-1.2958-1.5362-1.4878-.736-.192-1.52.032-2.0642.56l-2.4323 2.4315L25.987.636c-.848-.848-2.2082-.848-3.0563 0l-2.4323 2.4315L18.066.652c-.848-.848-2.2082-.848-3.0562 0l-2.4323 2.4315L10.1452.652C9.6012.108 8.817-.1 8.081.092c-.736.192-1.3282.752-1.5362 1.4878-.064.224-1.6482 5.663-1.6482 11.8862 0 11.1023 4.7525 17.5813 13.4415 18.4772v9.2946c-3.9523-5.0712-10.353-6.687-14.4015-6.687H2.1603C.96 34.5508 0 35.5268 0 36.7105v1.7597c0 14.174 11.7294 17.9173 17.922 17.9173h.416v21.4688c0 1.1678.9603 2.1437 2.1604 2.1437zm16.082-25.82c-.3522 4.5752-3.5045 12.606-13.2977 12.606h-.48c.224-2.2717 1.8082-12.83 13.7776-12.606zM4.3203 38.854c2.2564.112 12.9616 1.2478 13.2016 13.182-2.2402-.112-12.9615-1.2638-13.2015-13.182zM9.2172 13.434c0-2.5756.32-5.0553.6562-6.959l1.184 1.184c.8482.8477 2.2083.8477 3.0564 0L16.546 5.227 18.978 7.659c.848.8477 2.2083.8477 3.0564 0L24.467 5.227l2.432 2.4317c.8482.8477 2.2084.8477 3.0565 0l1.184-1.168c.3362 1.9197.6562 4.4154.6562 7.007 0 14.2378-8.497 14.2378-11.2813 14.2378S9.217 27.7198 9.217 13.434z"/></g></svg>
